public/ms_outlook.svg

<svg width="25" height="24" viewBox="0 0 25 24" fill="none" xmlns="http://www.w3.org/2000/svg">
<g clip-path="url(#clip0_45_12977)">
<rect x="8" y="1.5" width="15" height="21" rx="1.5" fill="#1066B5"/>
<rect x="8" y="1.5" width="15" height="21" rx="1.5" fill="url(#paint0_linear_45_12977)"/>
<rect x="8" y="3.75" width="7.5" height="7.5" fill="#32A9E7"/>
<rect x="8" y="11.25" width="7.5" height="7.5" fill="#167EB4"/>
<rect x="15.5" y="11.25" width="7.5" height="7.5" fill="#32A9E7"/>
<rect x="15.5" y="3.75" width="7.5" height="7.5" fill="#58D9FD"/>
<mask id="mask0_45_12977" style="mask-type:alpha" maskUnits="userSpaceOnUse" x="6" y="10" width="19" height="13">
<path d="M6.5 10.5H23C23.8284 10.5 24.5 11.1716 24.5 12V21C24.5 21.8284 23.8284 22.5 23 22.5H8C7.17157 22.5 6.5 21.8284 6.5 21V10.5Z" fill="url(#paint1_linear_45_12977)"/>
</mask>
<g mask="url(#mask0_45_12977)">
<path d="M24.5 10.5V13.5H23V10.5H24.5Z" fill="#135298"/>
<path d="M24.5 22.5V12L5.75 22.5H24.5Z" fill="url(#paint2_linear_45_12977)"/>
<path d="M6.5 22.5V12L25.25 22.5H6.5Z" fill="url(#paint3_linear_45_12977)"/>
</g>
<path d="M6.5 9C6.5 7.75736 7.50736 6.75 8.75 6.75H13.25C14.4926 6.75 15.5 7.75736 15.5 9V18C15.5 19.2426 14.4926 20.25 13.25 20.25H6.5V9Z" fill="black" fill-opacity="0.3"/>
<rect x="0.5" y="5.25" width="13.5" height="13.5" rx="1.5" fill="url(#paint4_linear_45_12977)"/>
<path d="M11 12.0519V11.9273C11 9.76662 9.44541 8.25 7.26187 8.25C5.06646 8.25 3.5 9.77701 3.5 11.9481V12.0727C3.5 14.2334 5.05459 15.75 7.25 15.75C9.43354 15.75 11 14.223 11 12.0519ZM9.2318 12.0727C9.2318 13.5062 8.42484 14.3684 7.26187 14.3684C6.09889 14.3684 5.28006 13.4855 5.28006 12.0519V11.9273C5.28006 10.4938 6.08703 9.63158 7.25 9.63158C8.40111 9.63158 9.2318 10.5145 9.2318 11.9481V12.0727Z" fill="white"/>
</g>
<defs>
<linearGradient id="paint0_linear_45_12977" x1="8" y1="12" x2="23" y2="12" gradientUnits="userSpaceOnUse">
<stop stop-color="#064484"/>
<stop offset="1" stop-color="#0F65B5"/>
</linearGradient>
<linearGradient id="paint1_linear_45_12977" x1="6.5" y1="20.0769" x2="24.5" y2="20.0769" gradientUnits="userSpaceOnUse">
<stop stop-color="#1B366F"/>
<stop offset="1" stop-color="#2657B0"/>
</linearGradient>
<linearGradient id="paint2_linear_45_12977" x1="24.5" y1="17.25" x2="6.5" y2="17.25" gradientUnits="userSpaceOnUse">
<stop stop-color="#44DCFD"/>
<stop offset="0.453125" stop-color="#259ED0"/>
</linearGradient>
<linearGradient id="paint3_linear_45_12977" x1="6.5" y1="17.25" x2="24.5" y2="17.25" gradientUnits="userSpaceOnUse">
<stop stop-color="#259ED0"/>
<stop offset="1" stop-color="#44DCFD"/>
</linearGradient>
<linearGradient id="paint4_linear_45_12977" x1="0.5" y1="12" x2="14" y2="12" gradientUnits="userSpaceOnUse">
<stop stop-color="#064484"/>
<stop offset="1" stop-color="#0F65B5"/>
</linearGradient>
<clipPath id="clip0_45_12977">
<rect width="24" height="24" fill="white" transform="translate(0.5)"/>
</clipPath>
</defs>
</svg>

<svg xmlns="http://www.w3.org/2000/svg" width="25" height="24" fill="none" viewBox="0 0 25 24"><g clip-path="url(#a)"><rect width="15" height="21" x="8" y="1.5" fill="#1066b5" rx="1.5"/><rect width="15" height="21" x="8" y="1.5" fill="url(#b)" rx="1.5"/><path fill="#32a9e7" d="M8 3.75h7.5v7.5H8z"/><path fill="#167eb4" d="M8 11.25h7.5v7.5H8z"/><path fill="#32a9e7" d="M15.5 11.25H23v7.5h-7.5z"/><path fill="#58d9fd" d="M15.5 3.75H23v7.5h-7.5z"/><mask id="d" width="19" height="13" x="6" y="10" maskUnits="userSpaceOnUse" style="mask-type:alpha"><path fill="url(#c)" d="M6.5 10.5H23a1.5 1.5 0 0 1 1.5 1.5v9a1.5 1.5 0 0 1-1.5 1.5H8A1.5 1.5 0 0 1 6.5 21z"/></mask><g mask="url(#d)"><path fill="#135298" d="M24.5 10.5v3H23v-3z"/><path fill="url(#e)" d="M24.5 22.5V12L5.75 22.5z"/><path fill="url(#f)" d="M6.5 22.5V12l18.75 10.5z"/></g><path fill="#000" fill-opacity=".3" d="M6.5 9a2.25 2.25 0 0 1 2.25-2.25h4.5A2.25 2.25 0 0 1 15.5 9v9a2.25 2.25 0 0 1-2.25 2.25H6.5z"/><rect width="13.5" height="13.5" x=".5" y="5.25" fill="url(#g)" rx="1.5"/><path fill="#fff" d="M11 12.052v-.125c0-2.16-1.555-3.677-3.738-3.677-2.196 0-3.762 1.527-3.762 3.698v.125c0 2.16 1.555 3.677 3.75 3.677 2.184 0 3.75-1.527 3.75-3.698m-1.768.02c0 1.434-.807 2.296-1.97 2.296s-1.982-.883-1.982-2.316v-.125c0-1.433.807-2.295 1.97-2.295 1.151 0 1.982.883 1.982 2.316z"/></g><defs><linearGradient id="b" x1="8" x2="23" y1="12" y2="12" gradientUnits="userSpaceOnUse"><stop stop-color="#064484"/><stop offset="1" stop-color="#0f65b5"/></linearGradient><linearGradient id="c" x1="6.5" x2="24.5" y1="20.077" y2="20.077" gradientUnits="userSpaceOnUse"><stop stop-color="#1b366f"/><stop offset="1" stop-color="#2657b0"/></linearGradient><linearGradient id="e" x1="24.5" x2="6.5" y1="17.25" y2="17.25" gradientUnits="userSpaceOnUse"><stop stop-color="#44dcfd"/><stop offset=".453" stop-color="#259ed0"/></linearGradient><linearGradient id="f" x1="6.5" x2="24.5" y1="17.25" y2="17.25" gradientUnits="userSpaceOnUse"><stop stop-color="#259ed0"/><stop offset="1" stop-color="#44dcfd"/></linearGradient><linearGradient id="g" x1=".5" x2="14" y1="12" y2="12" gradientUnits="userSpaceOnUse"><stop stop-color="#064484"/><stop offset="1" stop-color="#0f65b5"/></linearGradient><clipPath id="a"><path fill="#fff" d="M.5 0h24v24H.5z"/></clipPath></defs></svg>
